packages/foundations/assets/icons/functional/images/communication/speech_bubbles_14.svg

<svg width="14" height="14" viewBox="0 0 14 14" fill="none" xmlns="http://www.w3.org/2000/svg">
<g clip-path="url(#clip0_185_522)">
<path fill-rule="evenodd" clip-rule="evenodd" d="M1.40002 11.9V4.89999C1.40002 4.55342 1.68002 4.19999 2.10002 4.19999C2.52002 4.19999 2.80002 4.54999 2.80002 4.89999L2.80688 10.5785L3.64002 10.0322C3.85856 9.89561 4.0771 9.79999 4.41856 9.79999H9.10002C9.45002 9.79999 9.80002 10.08 9.80002 10.5C9.80002 10.92 9.4739 11.2069 9.10002 11.2L4.41856 11.1931L2.49272 12.4907C2.3698 12.5454 2.23316 12.6 2.11024 12.6C1.75513 12.6 1.40002 12.3917 1.40002 11.9ZM11.1932 1.39999C11.9581 1.39999 12.6 2.04196 12.6 2.80685V9.10342C12.6 9.51313 12.2449 9.79999 11.8898 9.79999C11.7669 9.79999 11.6302 9.77269 11.5073 9.69072L9.58148 8.39313H5.60688C4.84199 8.39313 4.20002 7.76488 4.20002 6.99999V2.80685C4.20002 2.04196 4.84199 1.39999 5.60688 1.39999H11.1932ZM11.1932 2.80685H5.60688V6.99999H9.58148C9.86835 6.99999 10.1278 7.08196 10.36 7.24583L11.1932 7.79218V2.80685Z" fill="#1A1C1F"/>
</g>
<defs>
<clipPath id="clip0_185_522">
<rect width="14" height="14" fill="white"/>
</clipPath>
</defs>
</svg>

<svg xmlns="http://www.w3.org/2000/svg" width="14" height="14" fill="none"><g clip-path="url(#a)"><path fill="#1A1C1F" fill-rule="evenodd" d="M1.4 11.9v-7c0-.347.28-.7.7-.7s.7.35.7.7l.007 5.679.833-.547a1.35 1.35 0 0 1 .779-.232H9.1c.35 0 .7.28.7.7s-.326.707-.7.7l-4.681-.007-1.926 1.298c-.123.054-.26.109-.383.109-.355 0-.71-.208-.71-.7m9.793-10.5c.765 0 1.407.642 1.407 1.407v6.296c0 .41-.355.697-.71.697a.7.7 0 0 1-.383-.11L9.581 8.394H5.607A1.41 1.41 0 0 1 4.2 7V2.807c0-.765.642-1.407 1.407-1.407zm0 1.407H5.607V7H9.58q.43 0 .779.246l.833.546z" clip-rule="evenodd"/></g><defs><clipPath id="a"><path fill="#fff" d="M0 0h14v14H0z"/></clipPath></defs></svg>
